!! George Gerswhin, "Could You Use Me?" from
!! "Bumper Book of George Gerswhin,"
!! London: Chappell Music Ltd., 1987; pp.58-61
**kern
*M4/4
*MM[Moderato]
=1
!! Verse
4r
8d
8e
8fn
8f
8e
8f
=2
4f#
4d
2dd
=3
4r
8e
8f#
8g
8g
8f#
8g
=4
1g#
=5
4r
8a
8b
8cc
8cc
8b
8a
=6
4dd
4g
2g
=7
4a
8b
8cc
4dd
4f#
=8
2.g
4r
=9
4r
8d
8e
8fn
8f
8e
8f
!! page 59
=10
4f#
4d
2d
=11
4r
8e
8f#
8g
8g
8f#
8g
=12
1g#
=13
4r
8a
8b
8cc
8cc
8b
8a
=14
4dd
4g
2g
=15
4a
8b
8cc
4ee
4f#
=16
2.g
4b
=17
4a
4a
4a
4cc#
=18
4b
4b
4b
8cc#
8dd
=19
4cc#
4cc#
4cc#
4ee
=20
2.dd
4b
!! Refrain.
=21
4dd
8b
[8dd
8dd]
4dd
8ee
=22
4dd
8b
[8dd
8dd]
4dd
8b
=23
4g
8e
[8g
8g]
4g
8a
!! page 60
=24
4g
8e
[8g
8g]
4g
8e
=25
4d
8B
[8d
8d]
4d
8e
=26
4d
4B
4d
4e
=27
4f#
[2.f#
=28
4f#]
4r
4r
4b
=29
4dd
8b
[8dd
8dd]
4dd
8ee
=30
4dd
8b
[8dd
8dd]
4dd
8b
=31
4g
8e
[8g
8g]
4g
8a
=32
4g
8e
[8g
8g]
4g
8e
=33
4d
8B
[8d
8d]
4d
8e
=34
4d
4B
4d
4e
=35
4b
[2.b
=36
2b]
2r
=37
8.g
16a
8.b
16cc
8.dd
16ee
4ffn
=38
4ffn
2g#
4ff
=39
4ee
2gn
4f#
=40
1dd
!! page 61
=41
8.e
16f#
8.g
16a
8.b
16cc
4dd
=42
4dd
2e
4dd
=43
4cc
2e-
4b
=44
2.a
4b
=45
4dd
8b
[8dd
8dd]
4dd
8ee
=46
4dd
8b
[8dd
8dd]
4dd
8b
=47
4g
8e
[8g
8g]
4g
8a
=48
4g
8e
[8g
8g]
4g
8e
=49
4d
8B
[8d
8d]
4d
8e
=50
4g
12ee
12dd
12ee
4b
4b
=51
!! First ending.
[1g
=52
4g]
4r
4r
4b
!! Repeat refrain.
=21
4dd
8b
[8dd
8dd]
4dd
8ee
=22
4dd
8b
[8dd
8dd]
4dd
8b
=23
4g
8e
[8g
8g]
4g
8a
!! page 60
=24
4g
8e
[8g
8g]
4g
8e
=25
4d
8B
[8d
8d]
4d
8e
=26
4d
4B
4d
4e
=27
4f#
[2.f#
=28
4f#]
4r
4r
4b
=29
4dd
8b
[8dd
8dd]
4dd
8ee
=30
4dd
8b
[8dd
8dd]
4dd
8b
=31
4g
8e
[8g
8g]
4g
8a
=32
4g
8e
[8g
8g]
4g
8e
=33
4d
8B
[8d
8d]
4d
8e
=34
4d
4B
4d
4e
=35
4b
[2.b
=36
2b]
2r
=37
8.g
16a
8.b
16cc
8.dd
16ee
4ffn
=38
4ffn
2g#
4ff
=39
4ee
2gn
4f#
=40
1dd
!! page 61
=41
8.e
16f#
8.g
16a
8.b
16cc
4dd
=42
4dd
2e
4dd
=43
4cc
2e-
4b
=44
2.a
4b
=45
4dd
8b
[8dd
8dd]
4dd
8ee
=46
4dd
8b
[8dd
8dd]
4dd
8b
=47
4g
8e
[8g
8g]
4g
8a
=48
4g
8e
[8g
8g]
4g
8e
=49
4d
8B
[8d
8d]
4d
8e
=50
4g
12ee
12dd
12ee
4b
4b
=51
!! Second ending.
[1g
=52
4g]
4r
2r
====
*-
